app/img/step-5/var-1.svg

<svg width="90" height="90" viewBox="0 0 90 90" fill="none" xmlns="http://www.w3.org/2000/svg">
<path d="M71.187 36.4379C70.4589 36.4379 69.8687 35.8476 69.8687 35.1195V28.3101C69.8687 27.582 70.4589 26.9918 71.187 26.9918C71.9151 26.9918 72.5054 27.582 72.5054 28.3101V35.1195C72.5054 35.8476 71.9151 36.4379 71.187 36.4379Z" fill="#F3EAE6"/>
<path d="M20.6636 8.64879C19.9355 8.64879 19.3452 8.05852 19.3452 7.33043V1.31836C19.3452 0.590273 19.9355 0 20.6636 0C21.3917 0 21.9819 0.590273 21.9819 1.31836V7.33043C21.9819 8.05852 21.3917 8.64879 20.6636 8.64879Z" fill="#F3EAE6"/>
<path d="M27.563 8.64882C26.8349 8.64882 26.2446 8.05854 26.2446 7.33046V3.2439C26.2446 2.51581 26.8349 1.92554 27.563 1.92554C28.2911 1.92554 28.8813 2.51581 28.8813 3.2439V7.33063C28.8813 8.05854 28.2911 8.64882 27.563 8.64882Z" fill="#F3EAE6"/>
<path d="M78.0864 36.4378C77.3583 36.4378 76.7681 35.8476 76.7681 35.1195V30.4913C76.7681 29.7632 77.3583 29.173 78.0864 29.173C78.8145 29.173 79.4048 29.7632 79.4048 30.4913V35.1195C79.4048 35.8476 78.8145 36.4378 78.0864 36.4378Z" fill="#F3EAE6"/>
<path fill-rule="evenodd" clip-rule="evenodd" d="M83.1011 88.6816V36.2978C83.1011 35.6509 82.5695 35.1195 81.9226 35.1195H78.0867H71.1871H65.3305L60.7925 62.4472L65.3305 88.6816H83.1011Z" fill="#B8ACAC"/>
<path d="M74.2153 46.8573H65.3301C64.602 46.8573 64.0117 46.267 64.0117 45.5389C64.0117 44.8109 64.602 44.2206 65.3301 44.2206H74.2153C74.9434 44.2206 75.5337 44.8109 75.5337 45.5389C75.5337 46.267 74.9434 46.8573 74.2153 46.8573Z" fill="#F3EAE6"/>
<path d="M74.2153 56.2992H65.3301C64.602 56.2992 64.0117 55.7089 64.0117 54.9808C64.0117 54.2527 64.602 53.6625 65.3301 53.6625H74.2153C74.9434 53.6625 75.5337 54.2527 75.5337 54.9808C75.5337 55.7089 74.9434 56.2992 74.2153 56.2992Z" fill="#F3EAE6"/>
<path d="M74.2153 65.7411H65.3301C64.602 65.7411 64.0117 65.1508 64.0117 64.4227C64.0117 63.6946 64.602 63.1044 65.3301 63.1044H74.2153C74.9434 63.1044 75.5337 63.6946 75.5337 64.4227C75.5337 65.1508 74.9434 65.7411 74.2153 65.7411Z" fill="#F3EAE6"/>
<path d="M74.2153 75.188H65.3301C64.602 75.188 64.0117 74.5977 64.0117 73.8696C64.0117 73.1415 64.602 72.5513 65.3301 72.5513H74.2153C74.9434 72.5513 75.5337 73.1415 75.5337 73.8696C75.5337 74.5977 74.9434 75.188 74.2153 75.188Z" fill="#F3EAE6"/>
<path fill-rule="evenodd" clip-rule="evenodd" d="M78.0217 36.2978V88.6816H83.1011V36.2978C83.1011 35.6509 82.5695 35.1195 81.9226 35.1195H78.0867H76.8433C77.4903 35.1193 78.0217 35.6509 78.0217 36.2978Z" fill="#9D9696"/>
<path fill-rule="evenodd" clip-rule="evenodd" d="M65.3309 88.6816V73.8695V64.4227V54.9808V45.5389V35.1193V14.3103L38.9658 10.8203L15.9104 14.3103V54.2237V74.4661L11.7285 82.0275L15.9104 88.6814C28.8872 88.6816 54.119 88.6816 65.3309 88.6816Z" fill="#F3EAE6"/>
<path fill-rule="evenodd" clip-rule="evenodd" d="M40.6203 88.6815V68.4641L35.0846 65.7414L30.4966 68.4641V88.6815H40.6203Z" fill="#ABD3F3"/>
<path fill-rule="evenodd" clip-rule="evenodd" d="M50.739 88.6815V68.4641L45.9403 65.7414L40.6201 68.4641V88.6815H50.739Z" fill="#ABD3F3"/>
<path fill-rule="evenodd" clip-rule="evenodd" d="M15.9101 14.3103H65.3306H66.7947C67.2058 14.3103 67.5418 13.9744 67.5418 13.5632V8.07745C67.5418 7.6663 67.2058 7.33038 66.7947 7.33038H27.5631H20.6635H14.4409C14.0346 7.33038 13.6987 7.6663 13.6987 8.07745V13.5631C13.6987 13.9742 14.0346 14.3101 14.4409 14.3101H15.9101V14.3103Z" fill="#B8ACAC"/>
<path fill-rule="evenodd" clip-rule="evenodd" d="M25.3619 32.8378H30.9929C31.2787 32.8378 31.5144 32.6021 31.5144 32.3163V23.1252C31.5144 22.8394 31.2787 22.6036 30.9929 22.6036H25.3619C25.0711 22.6036 24.8403 22.8394 24.8403 23.1252V32.3163C24.8403 32.6022 25.071 32.8378 25.3619 32.8378Z" fill="#ABD3F3"/>
<path fill-rule="evenodd" clip-rule="evenodd" d="M43.8146 32.8378C44.1004 32.8378 44.3362 32.6021 44.3362 32.3163V23.1252C44.3362 22.8394 44.1004 22.6036 43.8146 22.6036H38.1837C37.8978 22.6036 37.6621 22.8394 37.6621 23.1252V32.3163C37.6621 32.6021 37.8978 32.8378 38.1837 32.8378H43.8146Z" fill="#ABD3F3"/>
<path fill-rule="evenodd" clip-rule="evenodd" d="M51.0049 32.8378H56.6359C56.9217 32.8378 57.1575 32.6021 57.1575 32.3163V23.1252C57.1575 22.8394 56.9217 22.6036 56.6359 22.6036H51.0049C50.7191 22.6036 50.4834 22.8394 50.4834 23.1252V32.3163C50.4836 32.6022 50.7191 32.8378 51.0049 32.8378Z" fill="#ABD3F3"/>
<path fill-rule="evenodd" clip-rule="evenodd" d="M51.0049 50.9844H56.6359C56.9217 50.9844 57.1575 50.7487 57.1575 50.4629V41.2718C57.1575 40.986 56.9217 40.7502 56.6359 40.7502H51.0049C50.7191 40.7502 50.4834 40.986 50.4834 41.2718V50.4629C50.4836 50.7487 50.7191 50.9844 51.0049 50.9844Z" fill="#ABD3F3"/>
<path fill-rule="evenodd" clip-rule="evenodd" d="M38.1832 50.9844H43.8141C44.1 50.9844 44.3357 50.7487 44.3357 50.4629V41.2718C44.3357 40.986 44.1 40.7502 43.8141 40.7502H38.1832C37.8973 40.7502 37.6616 40.986 37.6616 41.2718V50.4629C37.6618 50.7487 37.8975 50.9844 38.1832 50.9844Z" fill="#ABD3F3"/>
<path fill-rule="evenodd" clip-rule="evenodd" d="M31.5142 50.4631V41.272C31.5142 40.9862 31.2785 40.7505 30.9927 40.7505H25.3619C25.0711 40.7505 24.8403 40.9862 24.8403 41.272V50.4631C24.8403 50.7489 25.071 50.9846 25.3619 50.9846H30.9928C31.2787 50.9845 31.5142 50.7487 31.5142 50.4631Z" fill="#ABD3F3"/>
<path fill-rule="evenodd" clip-rule="evenodd" d="M15.9102 19.0838H60.4619V78.6431V88.6816H65.3307C65.3307 63.8912 65.3307 39.1007 65.3307 14.3103H15.9102V19.0838Z" fill="#E0D2CE"/>
<path fill-rule="evenodd" clip-rule="evenodd" d="M61.038 8.07745V12.2994V13.5629C61.038 13.974 60.7021 14.31 60.2959 14.31H65.3303H66.7944C67.2055 14.31 67.5414 13.974 67.5414 13.5629V8.07745C67.5414 7.6663 67.2055 7.33038 66.7944 7.33038H60.2959C60.7021 7.33038 61.038 7.6663 61.038 8.07745Z" fill="#9D9696"/>
<path fill-rule="evenodd" clip-rule="evenodd" d="M56.9869 22.7392L50.6289 32.6775C50.7242 32.7777 50.8595 32.838 51.0049 32.838H56.6359C56.9217 32.838 57.1574 32.6023 57.1574 32.3165V23.1254C57.1574 22.9749 57.0922 22.8345 56.9869 22.7392Z" fill="#BED8FB"/>
<path fill-rule="evenodd" clip-rule="evenodd" d="M44.1651 22.7392L37.8071 32.6775C37.9024 32.7777 38.0328 32.838 38.1831 32.838H43.8141C44.0999 32.838 44.3356 32.6023 44.3356 32.3165V23.1254C44.3356 22.9749 44.2706 22.8345 44.1651 22.7392Z" fill="#BED8FB"/>
<path fill-rule="evenodd" clip-rule="evenodd" d="M31.3441 22.7392L24.981 32.6775C25.0762 32.7777 25.2116 32.838 25.3621 32.838H30.993C31.2788 32.838 31.5146 32.6023 31.5146 32.3165V23.1254C31.5144 22.9749 31.4443 22.8345 31.3441 22.7392Z" fill="#BED8FB"/>
<path fill-rule="evenodd" clip-rule="evenodd" d="M31.3441 40.8858L24.981 50.819C25.0762 50.9194 25.2116 50.9844 25.3621 50.9844H30.993C31.2788 50.9844 31.5146 50.7487 31.5146 50.4629V41.2718C31.5144 41.1164 31.4443 40.9811 31.3441 40.8858Z" fill="#BED8FB"/>
<path fill-rule="evenodd" clip-rule="evenodd" d="M44.1651 40.8858L37.8071 50.819C37.9024 50.9194 38.0328 50.9844 38.1831 50.9844H43.8141C44.0999 50.9844 44.3356 50.7487 44.3356 50.4629V41.2718C44.3356 41.1164 44.2706 40.9811 44.1651 40.8858Z" fill="#BED8FB"/>
<path fill-rule="evenodd" clip-rule="evenodd" d="M56.9869 40.8858L50.6289 50.819C50.7242 50.9194 50.8595 50.9844 51.0049 50.9844H56.6359C56.9217 50.9844 57.1574 50.7487 57.1574 50.4629V41.2718C57.1574 41.1164 57.0922 40.9811 56.9869 40.8858Z" fill="#BED8FB"/>
<path fill-rule="evenodd" clip-rule="evenodd" d="M40.6203 68.4641L30.4966 88.6816H40.6203V68.4641Z" fill="#BED8FB"/>
<path fill-rule="evenodd" clip-rule="evenodd" d="M50.739 68.4641L40.6201 88.6816H50.739V68.4641Z" fill="#BED8FB"/>
<path fill-rule="evenodd" clip-rule="evenodd" d="M15.9102 88.6815V74.4661L12.7261 72.4705L9.54199 74.4661V88.6815H15.9102Z" fill="#D87E49"/>
<path fill-rule="evenodd" clip-rule="evenodd" d="M15.9101 74.4661C19.4401 72.9518 21.9573 68.9905 21.9573 64.3424C21.9573 59.6991 19.4401 55.7379 15.9101 54.2235C14.9172 53.7973 13.8441 53.5617 12.726 53.5617C7.62637 53.5617 3.49463 58.3904 3.49463 64.3424C3.49463 68.9905 6.01182 72.9518 9.54186 74.4661C10.5347 74.8924 11.6078 75.123 12.726 75.123C13.8441 75.123 14.9172 74.8924 15.9101 74.4661Z" fill="#80D261"/>
<path fill-rule="evenodd" clip-rule="evenodd" d="M12.7261 75.1231V80.2276V83.6123V88.6816H15.9102V74.4662C14.9174 74.8925 13.8442 75.1231 12.7261 75.1231Z" fill="#C86D35"/>
<path fill-rule="evenodd" clip-rule="evenodd" d="M15.9101 57.3675C17.2789 59.2479 18.1014 61.6849 18.1014 64.3424C18.1014 67.0049 17.2791 69.4418 15.9101 71.3223C15.3636 72.0745 14.7268 72.7363 14.0247 73.2879C13.4179 73.7692 12.7561 74.1654 12.054 74.4661C11.6478 74.6416 11.2266 74.782 10.7954 74.8924C11.4171 75.0429 12.064 75.123 12.7258 75.123C13.844 75.123 14.9171 74.8924 15.9099 74.4661C19.44 72.9518 21.9572 68.9905 21.9572 64.3424C21.9572 59.6991 19.44 55.7379 15.9099 54.2235C14.9171 53.7973 13.844 53.5617 12.7258 53.5617C12.064 53.5617 11.4171 53.647 10.8003 53.7974C11.2266 53.9078 11.6478 54.0481 12.0538 54.2237C13.5634 54.8704 14.8872 55.9636 15.9101 57.3675Z" fill="#4FC122"/>
<path d="M40.6201 90C39.892 90 39.3018 89.4097 39.3018 88.6817V68.4642C39.3018 67.7361 39.892 67.1458 40.6201 67.1458C41.3482 67.1458 41.9385 67.7361 41.9385 68.4642V88.6817C41.9385 89.4097 41.3482 90 40.6201 90Z" fill="#F3EAE6"/>
<path fill-rule="evenodd" clip-rule="evenodd" d="M30.4966 68.4641H40.6204H50.7392H52.0679C52.449 68.4641 52.7649 68.1482 52.7649 67.762V62.6023C52.7649 62.2163 52.449 61.9003 52.0679 61.9003H29.1728C28.7868 61.9003 28.4707 62.2161 28.4707 62.6023V67.762C28.4707 68.1481 28.7866 68.4641 29.1728 68.4641H30.4966Z" fill="#B8ACAC"/>
<path fill-rule="evenodd" clip-rule="evenodd" d="M48.0063 62.6025V67.7622C48.0063 68.1482 47.6904 68.4643 47.3042 68.4643H50.739H52.0677C52.4488 68.4643 52.7647 68.1484 52.7647 67.7622V62.6025C52.7647 62.2165 52.4488 61.9005 52.0677 61.9005H47.3042C47.6904 61.9005 48.0063 62.2163 48.0063 62.6025Z" fill="#9D9696"/>
<path d="M87.1875 90H2.8125C2.08441 90 1.49414 89.4097 1.49414 88.6816C1.49414 87.9536 2.08441 87.3633 2.8125 87.3633H87.1875C87.9156 87.3633 88.5059 87.9536 88.5059 88.6816C88.5059 89.4097 87.9156 90 87.1875 90Z" fill="#746E6E"/>
</svg>

<svg width="90" height="90" fill="none" xmlns="http://www.w3.org/2000/svg"><path d="M71.187 36.438c-.728 0-1.318-.59-1.318-1.319V28.31a1.318 1.318 0 112.636 0v6.81c0 .728-.59 1.318-1.318 1.318zM20.664 8.649c-.729 0-1.319-.59-1.319-1.319V1.318a1.318 1.318 0 012.637 0V7.33c0 .729-.59 1.319-1.318 1.319zM27.563 8.649c-.728 0-1.318-.59-1.318-1.319V3.244a1.318 1.318 0 012.636 0V7.33c0 .728-.59 1.318-1.318 1.318zM78.086 36.438c-.728 0-1.318-.59-1.318-1.319v-4.628a1.318 1.318 0 112.637 0v4.629c0 .728-.59 1.318-1.319 1.318z" fill="#F3EAE6"/><path fill-rule="evenodd" clip-rule="evenodd" d="M83.101 88.682V36.298c0-.647-.531-1.178-1.178-1.178H65.33l-4.539 27.327 4.538 26.235h17.771z" fill="#B8ACAC"/><path d="M74.215 46.857H65.33a1.318 1.318 0 010-2.636h8.885a1.318 1.318 0 010 2.636zM74.215 56.3H65.33a1.318 1.318 0 010-2.637h8.885a1.318 1.318 0 110 2.636zM74.215 65.741H65.33a1.318 1.318 0 010-2.637h8.885a1.318 1.318 0 110 2.637zM74.215 75.188H65.33a1.318 1.318 0 010-2.637h8.885a1.318 1.318 0 110 2.637z" fill="#F3EAE6"/><path fill-rule="evenodd" clip-rule="evenodd" d="M78.022 36.298v52.384h5.08V36.298c0-.647-.532-1.178-1.18-1.178h-5.079c.647 0 1.179.53 1.179 1.178z" fill="#9D9696"/><path fill-rule="evenodd" clip-rule="evenodd" d="M65.33 88.682V14.31l-26.364-3.49-23.056 3.49V74.466l-4.181 7.562 4.181 6.653h49.42z" fill="#F3EAE6"/><path fill-rule="evenodd" clip-rule="evenodd" d="M40.62 88.681V68.465l-5.535-2.723-4.588 2.723v20.218H40.62zM50.739 88.681V68.465l-4.799-2.723-5.32 2.723v20.218H50.74z" fill="#ABD3F3"/><path fill-rule="evenodd" clip-rule="evenodd" d="M15.91 14.31H66.795a.749.749 0 00.747-.747V8.077a.749.749 0 00-.747-.747H14.44a.748.748 0 00-.742.747v5.486c0 .411.336.747.742.747h1.47z" fill="#B8ACAC"/><path fill-rule="evenodd" clip-rule="evenodd" d="M25.362 32.838h5.63a.524.524 0 00.522-.522v-9.19a.524.524 0 00-.521-.522h-5.631a.521.521 0 00-.522.521v9.191c0 .286.231.522.522.522zM43.815 32.838a.524.524 0 00.521-.522v-9.19a.525.525 0 00-.521-.522h-5.631a.524.524 0 00-.522.521v9.191c0 .286.236.522.522.522h5.63zM51.005 32.838h5.63a.524.524 0 00.523-.522v-9.19a.525.525 0 00-.522-.522h-5.631a.524.524 0 00-.522.521v9.191c0 .286.236.522.522.522zM51.005 50.984h5.63a.524.524 0 00.523-.521v-9.191a.525.525 0 00-.522-.522h-5.631a.524.524 0 00-.522.522v9.19c0 .287.236.522.522.522zM38.183 50.984h5.631a.524.524 0 00.522-.521v-9.191a.524.524 0 00-.522-.522h-5.63a.524.524 0 00-.522.522v9.19c0 .287.236.522.521.522zM31.514 50.463v-9.191a.524.524 0 00-.521-.521h-5.631a.521.521 0 00-.522.521v9.191c0 .286.231.522.522.522h5.63a.524.524 0 00.522-.522z" fill="#ABD3F3"/><path fill-rule="evenodd" clip-rule="evenodd" d="M15.91 19.084h44.552v69.598h4.869V14.31H15.91v4.774z" fill="#E0D2CE"/><path fill-rule="evenodd" clip-rule="evenodd" d="M61.038 8.077V13.563a.748.748 0 01-.742.747H66.794a.749.749 0 00.747-.747V8.077a.749.749 0 00-.747-.747h-6.498c.406 0 .742.336.742.747z" fill="#9D9696"/><path fill-rule="evenodd" clip-rule="evenodd" d="M56.987 22.74l-6.358 9.938c.095.1.23.16.376.16h5.63a.524.524 0 00.522-.522v-9.19c0-.151-.065-.292-.17-.387zM44.165 22.74l-6.358 9.938c.095.1.226.16.376.16h5.631a.524.524 0 00.522-.522v-9.19c0-.151-.065-.292-.17-.387zM31.344 22.74l-6.363 9.938c.095.1.23.16.381.16h5.631a.524.524 0 00.522-.522v-9.19c0-.151-.07-.292-.17-.387zM31.344 40.886l-6.363 9.933c.095.1.23.165.381.165h5.631a.524.524 0 00.522-.521v-9.191c0-.156-.07-.29-.17-.386zM44.165 40.886l-6.358 9.933c.095.1.226.165.376.165h5.631a.524.524 0 00.522-.521v-9.191a.514.514 0 00-.17-.386zM56.987 40.886l-6.358 9.933c.095.1.23.165.376.165h5.63a.524.524 0 00.522-.521v-9.191a.515.515 0 00-.17-.386zM40.62 68.464L30.497 88.682H40.62V68.464zM50.739 68.464L40.62 88.682H50.74V68.464z" fill="#BED8FB"/><path fill-rule="evenodd" clip-rule="evenodd" d="M15.91 88.681V74.466l-3.184-1.995-3.184 1.995v14.216h6.368z" fill="#D87E49"/><path fill-rule="evenodd" clip-rule="evenodd" d="M15.91 74.466c3.53-1.514 6.047-5.475 6.047-10.124 0-4.643-2.517-8.604-6.047-10.118a8.045 8.045 0 00-3.184-.662c-5.1 0-9.231 4.828-9.231 10.78 0 4.648 2.517 8.61 6.047 10.124a8.039 8.039 0 006.368 0z" fill="#80D261"/><path fill-rule="evenodd" clip-rule="evenodd" d="M12.726 75.123V88.682h3.184V74.466a8.039 8.039 0 01-3.184.657z" fill="#C86D35"/><path fill-rule="evenodd" clip-rule="evenodd" d="M15.91 57.367c1.369 1.88 2.191 4.318 2.191 6.975 0 2.663-.822 5.1-2.19 6.98a9.892 9.892 0 01-1.886 1.966 8.656 8.656 0 01-1.971 1.178 8.46 8.46 0 01-1.259.426c.622.15 1.269.231 1.93.231 1.119 0 2.192-.23 3.185-.657 3.53-1.514 6.047-5.475 6.047-10.124 0-4.643-2.517-8.604-6.047-10.118a8.044 8.044 0 00-3.184-.662c-.662 0-1.309.085-1.926.235.427.11.848.251 1.254.427 1.51.646 2.833 1.74 3.856 3.144z" fill="#4FC122"/><path d="M40.62 90c-.728 0-1.318-.59-1.318-1.318V68.464a1.318 1.318 0 112.636 0v20.218c0 .728-.59 1.318-1.318 1.318z" fill="#F3EAE6"/><path fill-rule="evenodd" clip-rule="evenodd" d="M30.497 68.464H52.068a.703.703 0 00.697-.702v-5.16a.703.703 0 00-.697-.702H29.173a.704.704 0 00-.702.702v5.16c0 .386.316.702.702.702h1.324z" fill="#B8ACAC"/><path fill-rule="evenodd" clip-rule="evenodd" d="M48.006 62.602v5.16a.704.704 0 01-.702.702h4.764a.703.703 0 00.697-.702v-5.16a.703.703 0 00-.697-.701h-4.764c.386 0 .702.315.702.701z" fill="#9D9696"/><path d="M87.188 90H2.811a1.318 1.318 0 010-2.637h84.376a1.318 1.318 0 010 2.637z" fill="#746E6E"/></svg>
